X:318
T:Silver Street Lasses
R:hp 48
S:J.Moore,Tyneside,1841.(20)
O:England
A:Northumbria
Z:C.G.P
M:4/4
L:1/8
Q:1/4=180
K:C
|:E2|A^GAB A=GEG|A^GAB cBcd|efge dedc|B2G2 G2E2|
A^GAB A=GEG|A^GAB cBcd|efge dedB|c2A2 A2:|
|:eg|a^gab a=geg|a^gab a=geg|gfga gedc|B2G2 G2eg|
a^gab a=geg|a^g aba2AB|cBcd egde|c2A2 A2eg|
a^gab a=geg|a^gaba2ef|gage dedc|B2G2 G2cB|
A^GAB cBce|dcBA GABG|A ^GAB cBcd|e2A2 A2:|]

